overrides/.icons/class/phb24-wizard.svg

<?xml version="1.0" encoding="UTF-8" standalone="no"?>
<svg
   version="1.1"
   width="24"
   height="24"
   id="svg5"
   sodipodi:docname="phb24-wizard.svg"
   inkscape:version="1.3.2 (091e20e, 2023-11-25, custom)"
   xmlns:inkscape="http://www.inkscape.org/namespaces/inkscape"
   xmlns:sodipodi="http://sodipodi.sourceforge.net/DTD/sodipodi-0.dtd"
   xmlns="http://www.w3.org/2000/svg"
   xmlns:svg="http://www.w3.org/2000/svg">
  <defs
     id="defs5" />
  <sodipodi:namedview
     id="namedview5"
     pagecolor="#ffffff"
     bordercolor="#111111"
     borderopacity="1"
     inkscape:showpageshadow="0"
     inkscape:pageopacity="0"
     inkscape:pagecheckerboard="1"
     inkscape:deskcolor="#d1d1d1"
     inkscape:zoom="7.335689"
     inkscape:cx="14.109104"
     inkscape:cy="13.563825"
     inkscape:window-width="1366"
     inkscape:window-height="697"
     inkscape:window-x="-8"
     inkscape:window-y="-8"
     inkscape:window-maximized="1"
     inkscape:current-layer="svg5" />
  <g
     id="g5"
     transform="matrix(0.06990806,0,0,0.06990806,1.5000006,2.1048141)"
     style="stroke-width:14.3045">
    <path
       d="M 0,0 C -0.04640625,0.7528125 -0.0928125,1.505625 -0.140625,2.28125 -0.90461256,24.764312 9.179726,45.499076 24,62 35.108477,73.403392 48.100475,81.371512 61.788086,89.318359 72.426865,95.53285 82.059415,102.46305 91,111 c 3.143213,-1.39467 5.23524,-3.04493 7.6875,-5.4375 8.97834,-8.115604 19.75786,-14.074364 30.13599,-20.204834 C 136.68873,80.70845 144.14111,76.085705 151,70 c 0.81211,-0.670312 1.62422,-1.340625 2.46094,-2.03125 C 169.70798,54.171264 181.17967,34.260973 184,13 c 0.0652,-2.290833 0.0859,-4.5833579 0.0625,-6.875 -0.009,-1.1524219 -0.018,-2.3048437 -0.0273,-3.4921875 C 184.02355,1.7639844 184.01195,0.89515625 184,0 c 5.44154,0.54843908 9.54034,2.5162202 14.3125,5 1.09151,0.5530078 1.09151,0.5530078 2.20508,1.1171875 5.3131,2.713497 5.3131,2.713497 6.48242,3.8828125 0.72469,7.536825 -1.58167,13.917738 -4,21 5.00614,-3.725498 7.95578,-7.571586 11,-13 3.84375,1.757812 3.84375,1.757812 5.25,3.9375 C 220,24 220,24 220,27 c 0.51949,-0.372539 1.03898,-0.745078 1.57422,-1.128906 1.04607,-0.709629 1.04607,-0.709629 2.11328,-1.433594 0.68449,-0.475664 1.36898,-0.951328 2.07422,-1.441406 C 228.68239,21.696317 230.0138,21.919281 233,23 c 1.94922,1.707031 1.94922,1.707031 3.6875,3.8125 0.87205,1.030605 0.87205,1.030605 1.76172,2.082031 2.11406,2.870227 3.38228,5.044409 3.94531,8.589844 -0.54954,3.503979 -2.01572,4.505426 -4.70703,6.765625 -1.38445,1.177559 -1.38445,1.177559 -2.79688,2.378906 C 233.45977,47.802598 233.45977,47.802598 232,49 c -0.83016,0.689648 -1.66031,1.379297 -2.51563,2.089844 -2.26332,1.864118 -4.53843,3.712783 -6.81787,5.557129 -3.35952,2.727586 -6.7001,5.478289 -10.0415,8.228027 -0.72985,0.600542 -1.4597,1.201084 -2.21167,1.819824 -4.99346,4.116312 -9.94655,8.277064 -14.8772,12.468262 -5.99728,5.091465 -12.10367,10.046786 -18.20801,15.008789 -4.92691,4.015576 -9.80605,8.077475 -14.64062,12.203125 -4.43611,3.78281 -8.9534,7.43046 -13.5625,11 -5.67346,4.39751 -11.09946,9.02672 -16.49048,13.7644 -4.94699,4.32401 -10.04295,8.42105 -15.24389,12.43482 -2.24194,1.73025 -4.38544,3.42059 -6.39063,5.42578 -0.18563,1.70156 -0.18563,1.70156 -0.375,3.4375 C 110,156 110,156 108.125,157.875 c -5.18511,2.74506 -10.2133,2.3454 -15.9375,2.375 -1.478232,0.0309 -1.478232,0.0309 -2.986328,0.0625 C 83.694991,160.34208 79.756408,160.11329 75,157 74,156 74,156 73.835937,152.80469 72.72942,147.76848 70.572548,146.18965 66.625,143.125 65.987961,142.60599 65.350923,142.08698 64.69458,141.55225 62.80829,140.0193 60.905008,138.50957 59,137 c -1.772703,-1.45606 -3.543714,-2.91418 -5.3125,-4.375 -0.875273,-0.71156 -1.750547,-1.42313 -2.652344,-2.15625 C 47.22141,127.36671 43.421579,124.24802 39.625,121.125 38.892651,120.52277 38.160303,119.92053 37.405762,119.30005 33.007635,115.67596 28.646162,112.01328 24.3125,108.3125 20.002109,104.63316 15.604354,101.09625 11.125,97.625 5.3814767,93.170561 -0.12732951,88.490718 -5.5961914,83.70459 -10.964107,79.009943 -16.452626,74.481212 -22,70 -28.438138,64.770193 -34.81745,59.480098 -41.137207,54.108398 -45.695716,50.240159 -50.31216,46.448795 -54.953125,42.679687 -57,41 -57,41 -58,40 c 0.131213,-6.429455 2.673451,-10.33908 7,-15 3.615894,-3.013245 3.615894,-3.013245 5.8125,-2.9375 3.230313,1.38442 6.168519,3.137723 9.1875,4.9375 0.09668,-0.727031 0.193359,-1.454063 0.292969,-2.203125 0.805695,-3.187169 2.000013,-4.969503 4.019531,-7.546875 0.594258,-0.778594 1.188516,-1.557187 1.800781,-2.359375 C -27.879383,12.879133 -26.774222,12.367447 -24,12 c 0.470508,0.759258 0.941016,1.518516 1.425781,2.300781 0.622617,0.993867 1.245235,1.987735 1.886719,3.011719 0.922324,1.479199 0.922324,1.479199 1.863281,2.988281 1.668667,2.653215 1.668667,2.653215 3.554688,4.429688 C -14,26 -14,26 -14,28 c 0.66,0 1.32,0 2,0 -0.495,-1.19625 -0.99,-2.3925 -1.5,-3.625 C -15.665158,18.021838 -15.254618,11.629503 -15,5 -13.065321,4.1601392 -11.127149,3.3283197 -9.1875,2.5 -8.1085547,2.0359375 -7.0296094,1.571875 -5.9179687,1.09375 -3,0 -3,0 0,0 Z"
       transform="translate(58,123)"
       id="path1"
       style="stroke-width:14.3045" />
    <path
       d="M 0,0 C 9.9599295,-1.0587327 17.118959,1.6779189 25.136719,7.5703125 31.739481,13.499908 35.479132,22.361957 36.167969,31.140625 36.30448,45.883879 29.997074,57.566498 20.0354,68.117432 11.535253,76.739659 1.7331145,83.928301 -7.875,91.25 -22.566294,102.49093 -35.620861,114.32894 -40,133 c -2.365894,21.58813 5.68888,40.4898 17.847656,57.86328 0.380274,0.70512 0.760547,1.41024 1.152344,2.13672 -0.33,0.99 -0.66,1.98 -1,3 -8.750614,-5.33359 -16.623519,-10.81796 -24,-18 -0.854648,-0.79277 -1.709297,-1.58555 -2.589844,-2.40234 C -54.52061,169.95228 -58.993114,164.13246 -63,157 c -0.473086,-0.83531 -0.946172,-1.67063 -1.433594,-2.53125 C -71.854803,140.55123 -73.701127,124.1522 -69.375,108.875 -60.665416,85.082965 -39.89715,71.136106 -20.042969,57.226562 -6.6218439,47.800944 5.5808998,38.187958 9.875,21.625 10.116679,14.616297 7.9195566,9.7238228 3.3125,4.5 2.3785742,3.5254688 2.3785742,3.5254688 1.4257812,2.53125 0,1 0,1 0,0 Z"
       transform="translate(142)"
       id="path2"
       style="stroke-width:14.3045" />
    <path
       d="M 0,0 C 17.24748,6.169291 35.185174,21.117387 43.746094,37.300781 50.949057,52.553099 53.38212,66.690049 48,83 c -3.625377,9.119952 -8.351261,17.74566 -15,25 -0.850781,0.9423 -1.701563,1.88461 -2.578125,2.85547 C 21.434808,120.47569 10.320211,129.06115 -2,134 c -0.99,0 -1.98,0 -3,0 1.4769074,-4.21192 3.6905799,-7.65544 6.1875,-11.3125 C 11.467071,107.12034 19.162545,88.50898 15.308594,69.609375 11.513125,56.206129 4.5877777,46.778987 -5,37 -5.7399219,36.221406 -6.4798437,35.442813 -7.2421875,34.640625 -11.205826,30.538182 -15.252938,27.164708 -20,24 c 0.509319,-4.065457 2.417229,-5.517311 5.5,-8.0625 C -8.9226693,11.1156 -4.507905,5.8254329 0,0 Z"
       transform="translate(179,61)"
       id="path3"
       style="stroke-width:14.3045" />
    <path
       d="M 0,0 C 1.980406,2.970609 2.9884208,5.5273999 4.1875,8.875 11.594257,28.309638 23.625319,43.606767 41,55 c -0.852998,1.146704 -1.707499,2.292289 -2.5625,3.4375 -0.547852,0.736055 -1.095703,1.472109 -1.660156,2.230469 -1.146122,1.503812 -2.319096,2.987709 -3.523438,4.445312 C 24.413601,75.883096 18.732716,88.727745 17.40625,102.62109 15.681252,120.66478 15.681252,120.66478 10.375,125.9375 6.4887064,129 6.4887064,129 5,129 4.8604132,121.07178 4.7540859,113.14407 4.689127,105.21492 4.6579349,101.53224 4.6156907,97.850406 4.5473633,94.168213 4.481728,90.608452 4.446203,87.0495 4.4307365,83.48918 4.4144041,81.483364 4.3676357,79.477871 4.320221,77.472549 4.3175303,70.106768 4.938571,65.543368 9.8057556,59.851669 11.221951,58.07327 11.221951,58.07327 10.810455,55.92067 9.5803996,53.005604 7.5865268,51.050367 5.4375,48.75 4.6112109,47.857969 3.7849219,46.965938 2.9335938,46.046875 2.2955078,45.371406 1.6574219,44.695937 1,44 c -6.3292594,5.167652 -6.3292594,5.167652 -12,11 0.352752,3.155377 1.6021744,4.91285 3.5319824,7.353516 3.7709942,5.893265 3.0892987,12.21365 2.9562989,18.990234 -0.00934,1.378608 -0.016451,2.757233 -0.021439,4.135864 -0.018963,3.603994 -0.067968,7.206957 -0.12352,10.810547 -0.051426,3.686992 -0.074044,7.374149 -0.099182,11.061399 C -4.8092578,114.56817 -4.8944363,121.78394 -5,129 c -1.1055189,-0.93591 -2.2093545,-1.8738 -3.3125,-2.8125 -0.6148828,-0.52207 -1.2297656,-1.04414 -1.863281,-1.58203 -3.654809,-3.21655 -5.162079,-4.63665 -5.597657,-9.62109 -0.09966,-0.99685 -0.199321,-1.9937 -0.302001,-3.02076 -0.09886,-1.06049 -0.19771,-2.12099 -0.299561,-3.21362 C -18.574865,88.700651 -25.225711,71.271139 -40,57 c 1.418793,-3.41397 3.006641,-4.997577 6,-7.125 C -18.956564,38.466058 -9.7730674,24.386316 -3,7 -2.0156977,4.6595866 -1.0090432,2.3299189 0,0 Z"
       transform="translate(150,94)"
       id="path4"
       style="stroke-width:14.3045" />
    <path
       d="m 0,0 c -0.52268466,2.7627618 -1.1086959,5.3260876 -2,8 -0.5286772,5.392508 0.4603307,8.562578 3.125,13.105469 C 2,23 2,23 2,27 c -1.83744166,1.88204 -3.5760858,3.447103 -5.625,5.0625 -0.7831055,0.650654 -0.7831055,0.650654 -1.5820312,1.314453 C -8.6012545,36.130045 -12.032867,38.18322 -16,40 -20.425587,31.533659 -20.986768,23.965105 -18.320312,14.617188 -15.510196,8.2757741 -10.264671,3.6323356 -4.125,0.5625 -2,0 -2,0 0,0 Z"
       transform="translate(131,11)"
       id="path5"
       style="stroke-width:14.3045" />
  </g>
</svg>

<?xml version="1.0" encoding="UTF-8"?>
<svg id="svg5" width="24" height="24" version="1.1" xmlns="http://www.w3.org/2000/svg">
 <g id="g5" transform="matrix(.069908 0 0 .069908 1.5 2.1048)" stroke-width="14.304">
  <path id="path1" transform="translate(58,123)" d="m0 0c-0.046406 0.75281-0.092812 1.5056-0.14062 2.2812-0.76399 22.483 9.3204 43.218 24.141 59.719 11.108 11.403 24.1 19.372 37.788 27.318 10.639 6.2145 20.271 13.145 29.212 21.682 3.1432-1.3947 5.2352-3.0449 7.6875-5.4375 8.9783-8.1156 19.758-14.074 30.136-20.205 7.8652-4.6492 15.318-9.272 22.177-15.358 0.81211-0.67031 1.6242-1.3406 2.4609-2.0312 16.247-13.797 27.719-33.708 30.539-54.969 0.0652-2.2908 0.0859-4.5834 0.0625-6.875-9e-3 -1.1524-0.018-2.3048-0.0273-3.4922-0.01165-0.86883-0.02325-1.7377-0.0352-2.6328 5.4415 0.54844 9.5403 2.5162 14.312 5 1.0915 0.55301 1.0915 0.55301 2.2051 1.1172 5.3131 2.7135 5.3131 2.7135 6.4824 3.8828 0.72469 7.5368-1.5817 13.918-4 21 5.0061-3.7255 7.9558-7.5716 11-13 3.8438 1.7578 3.8438 1.7578 5.25 3.9375 0.75 2.0625 0.75 2.0625 0.75 5.0625 0.51949-0.37254 1.039-0.74508 1.5742-1.1289 1.0461-0.70963 1.0461-0.70963 2.1133-1.4336 0.68449-0.47566 1.369-0.95133 2.0742-1.4414 2.9207-1.2998 4.2521-1.0768 7.2383 0.003906 1.9492 1.707 1.9492 1.707 3.6875 3.8125 0.87205 1.0306 0.87205 1.0306 1.7617 2.082 2.1141 2.8702 3.3823 5.0444 3.9453 8.5898-0.54954 3.504-2.0157 4.5054-4.707 6.7656-1.3844 1.1776-1.3844 1.1776-2.7969 2.3789-1.4308 1.1737-1.4308 1.1737-2.8906 2.3711-0.83016 0.68965-1.6603 1.3793-2.5156 2.0898-2.2633 1.8641-4.5384 3.7128-6.8179 5.5571-3.3595 2.7276-6.7001 5.4783-10.042 8.228-0.72985 0.60054-1.4597 1.2011-2.2117 1.8198-4.9935 4.1163-9.9466 8.2771-14.877 12.468-5.9973 5.0915-12.104 10.047-18.208 15.009-4.9269 4.0156-9.806 8.0775-14.641 12.203-4.4361 3.7828-8.9534 7.4305-13.562 11-5.6735 4.3975-11.099 9.0267-16.49 13.764-4.947 4.324-10.043 8.421-15.244 12.435-2.2419 1.7302-4.3854 3.4206-6.3906 5.4258-0.18563 1.7016-0.18563 1.7016-0.375 3.4375-0.625 3.5625-0.625 3.5625-2.5 5.4375-5.1851 2.7451-10.213 2.3454-15.938 2.375-1.4782 0.0309-1.4782 0.0309-2.9863 0.0625-5.5062 0.02958-9.4448-0.19921-14.201-3.3125-1-1-1-1-1.1641-4.1953-1.1065-5.0362-3.2634-6.615-7.2109-9.6797-0.63704-0.51901-1.2741-1.038-1.9304-1.5728-1.8863-1.533-3.7896-3.0427-5.6946-4.5522-1.7727-1.4561-3.5437-2.9142-5.3125-4.375-0.87527-0.71156-1.7505-1.4231-2.6523-2.1562-3.8137-3.102-7.6136-6.2207-11.41-9.3438-0.73235-0.60223-1.4647-1.2045-2.2192-1.825-4.3981-3.6241-8.7596-7.2868-13.093-10.988-4.3104-3.6793-8.7081-7.2162-13.188-10.688-5.7435-4.4544-11.252-9.1343-16.721-13.92-5.3679-4.6946-10.856-9.2234-16.404-13.705-6.4381-5.2298-12.817-10.52-19.137-15.892-4.5585-3.8682-9.175-7.6596-13.816-11.429-2.0469-1.6797-2.0469-1.6797-3.0469-2.6797 0.13121-6.4295 2.6735-10.339 7-15 3.6159-3.0132 3.6159-3.0132 5.8125-2.9375 3.2303 1.3844 6.1685 3.1377 9.1875 4.9375 0.09668-0.72703 0.19336-1.4541 0.29297-2.2031 0.8057-3.1872 2-4.9695 4.0195-7.5469 0.59426-0.77859 1.1885-1.5572 1.8008-2.3594 2.0073-2.0115 3.1125-2.5232 5.8867-2.8906 0.47051 0.75926 0.94102 1.5185 1.4258 2.3008 0.62262 0.99387 1.2452 1.9877 1.8867 3.0117 0.92232 1.4792 0.92232 1.4792 1.8633 2.9883 1.6687 2.6532 1.6687 2.6532 3.5547 4.4297 1.2695 1.2695 1.2695 1.2695 1.2695 3.2695h2l-1.5-3.625c-2.1652-6.3532-1.7546-12.745-1.5-19.375 1.9347-0.83986 3.8729-1.6717 5.8125-2.5 1.0789-0.46406 2.1579-0.92812 3.2695-1.4062 2.918-1.0938 2.918-1.0938 5.918-1.0938z"/>
  <path id="path2" transform="translate(142)" d="m0 0c9.9599-1.0587 17.119 1.6779 25.137 7.5703 6.6028 5.9296 10.342 14.792 11.031 23.57 0.13651 14.743-6.1709 26.426-16.133 36.977-8.5001 8.6222-18.302 15.811-27.91 23.133-14.691 11.241-27.746 23.079-32.125 41.75-2.3659 21.588 5.6889 40.49 17.848 57.863 0.38027 0.70512 0.76055 1.4102 1.1523 2.1367l-1 3c-8.7506-5.3336-16.624-10.818-24-18-0.85465-0.79277-1.7093-1.5856-2.5898-2.4023-5.9308-5.6454-10.403-11.465-14.41-18.598-0.47309-0.83531-0.94617-1.6706-1.4336-2.5312-7.4212-13.918-9.2675-30.317-4.9414-45.594 8.7096-23.792 29.478-37.739 49.332-51.648 13.421-9.4256 25.624-19.039 29.918-35.602 0.24168-7.0087-1.9554-11.901-6.5625-17.125-0.93393-0.97453-0.93393-0.97453-1.8867-1.9688-1.4258-1.5312-1.4258-1.5312-1.4258-2.5312z"/>
  <path id="path3" transform="translate(179,61)" d="m0 0c17.247 6.1693 35.185 21.117 43.746 37.301 7.203 15.252 9.636 29.389 4.2539 45.699-3.6254 9.12-8.3513 17.746-15 25-0.85078 0.9423-1.7016 1.8846-2.5781 2.8555-8.9871 9.6202-20.102 18.206-32.422 23.145h-3c1.4769-4.2119 3.6906-7.6554 6.1875-11.312 10.28-15.567 17.975-34.179 14.121-53.078-3.7955-13.403-10.721-22.83-20.309-32.609-0.73992-0.77859-1.4798-1.5572-2.2422-2.3594-3.9636-4.1024-8.0108-7.4759-12.758-10.641 0.50932-4.0655 2.4172-5.5173 5.5-8.0625 5.5773-4.8219 9.9921-10.112 14.5-15.938z"/>
  <path id="path4" transform="translate(150,94)" d="m0 0c1.9804 2.9706 2.9884 5.5274 4.1875 8.875 7.4068 19.435 19.438 34.732 36.812 46.125-0.853 1.1467-1.7075 2.2923-2.5625 3.4375-0.54785 0.73606-1.0957 1.4721-1.6602 2.2305-1.1461 1.5038-2.3191 2.9877-3.5234 4.4453-8.8403 10.77-14.521 23.614-15.848 37.508-1.725 18.044-1.725 18.044-7.0312 23.316-3.8863 3.0625-3.8863 3.0625-5.375 3.0625-0.13959-7.9282-0.24591-15.856-0.31087-23.785-0.031192-3.6827-0.073436-7.3645-0.14176-11.047-0.065635-3.5598-0.10116-7.1187-0.11663-10.679-0.016332-2.0058-0.063101-4.0113-0.11052-6.0166-0.0026907-7.3658 0.61835-11.929 5.4855-17.621 1.4162-1.7784 1.4162-1.7784 1.0047-3.931-1.2301-2.9151-3.2239-4.8703-5.373-7.1707-0.82629-0.89203-1.6526-1.7841-2.5039-2.7031-0.63809-0.67547-1.2762-1.3509-1.9336-2.0469-6.3293 5.1677-6.3293 5.1677-12 11 0.35275 3.1554 1.6022 4.9128 3.532 7.3535 3.771 5.8933 3.0893 12.214 2.9563 18.99-0.00934 1.3786-0.016451 2.7572-0.021439 4.1359-0.018963 3.604-0.067968 7.207-0.12352 10.811-0.051426 3.687-0.074044 7.3741-0.099182 11.061-0.053398 7.2166-0.13858 14.432-0.24414 21.648-1.1055-0.93591-2.2094-1.8738-3.3125-2.8125-0.61488-0.52207-1.2298-1.0441-1.8633-1.582-3.6548-3.2166-5.1621-4.6366-5.5977-9.6211-0.09966-0.99685-0.19932-1.9937-0.302-3.0208-0.09886-1.0605-0.19771-2.121-0.29956-3.2136-2.1999-20.049-8.8507-37.479-23.625-51.75 1.4188-3.414 3.0066-4.9976 6-7.125 15.043-11.409 24.227-25.489 31-42.875 0.9843-2.3404 1.991-4.6701 3-7z"/>
  <path id="path5" transform="translate(131,11)" d="m0 0c-0.52268 2.7628-1.1087 5.3261-2 8-0.52868 5.3925 0.46033 8.5626 3.125 13.105 0.875 1.8945 0.875 1.8945 0.875 5.8945-1.8374 1.882-3.5761 3.4471-5.625 5.0625-0.78311 0.65065-0.78311 0.65065-1.582 1.3145-3.3942 2.7531-6.8258 4.8063-10.793 6.623-4.4256-8.4663-4.9868-16.035-2.3203-25.383 2.8101-6.3414 8.0556-10.985 14.195-14.055 2.125-0.5625 2.125-0.5625 4.125-0.5625z"/>
 </g>
</svg>
